src/icon/category/category-travel/icon_category-travel_m_white.svg

<svg width="24" height="24" viewBox="0 0 24 24" xmlns="http://www.w3.org/2000/svg"><g fill="none" fill-rule="evenodd"><path d="M0 0h24v24H0z"/><g fill="#FFF" fill-rule="nonzero"><path d="M9 22a1 1 0 0 0 1 1h4a1 1 0 0 0 1-1v-2H9v2z" opacity=".3"/><path d="M14.706 17.764v-.5c0-1.093.817-1.786 1.851-2.663l.268-.229a7.984 7.984 0 0 0 1.392-1.341c1.021-1.178 1.588-2.541 1.734-4.161.031-.286.049-.576.049-.87 0-4.411-3.589-8-8-8S4 3.589 4 8c0 .294.018.584.048.86.147 1.632.717 2.998 1.73 4.163.4.494.87.948 1.374 1.329l.292.248c1.034.877 1.851 1.57 1.851 2.663v.5h5.411v.001zM8.09 13.838l-.311-.264a7.088 7.088 0 0 1-1.235-1.193c-.894-1.028-1.371-2.176-1.501-3.619A7.104 7.104 0 0 1 5 8c0-3.859 3.14-7 7-7s7 3.141 7 7c0 .257-.016.512-.044.771-.129 1.435-.606 2.582-1.5 3.61l-.011.014a7.097 7.097 0 0 1-1.248 1.198l-.287.245c-1.006.854-1.963 1.666-2.165 2.926h-3.49c-.202-1.26-1.159-2.073-2.165-2.926z"/><path d="M12 0C9.451 0 7.529 3.06 7.529 7.117c0 2.642.728 4.156 1.432 5.62.625 1.3 1.215 2.527 1.215 4.526h1c0-2.227-.668-3.616-1.313-4.959-.686-1.426-1.334-2.774-1.334-5.187 0-3.13 1.27-5.633 2.971-6.049v16.196h1V1.068c1.7.416 2.971 2.92 2.971 6.049 0 2.413-.647 3.761-1.333 5.188-.646 1.343-1.313 2.732-1.313 4.959h1c0-1.999.59-3.227 1.215-4.526.704-1.464 1.432-2.979 1.432-5.62C16.471 3.06 14.549 0 12 0z" opacity=".3"/></g></g></svg>

<?xml version="1.0" encoding="UTF-8"?>
<svg width="24px" height="24px" viewBox="0 0 24 24" version="1.1" xmlns="http://www.w3.org/2000/svg" xmlns:xlink="http://www.w3.org/1999/xlink">
    <!-- Generator: Sketch 48.2 (47327) - http://www.bohemiancoding.com/sketch -->
    <title>icon_category-travel_m_white</title>
    <desc>Created with Sketch.</desc>
    <defs></defs>
    <g id="mobile" stroke="none" stroke-width="1" fill="none" fill-rule="evenodd" transform="translate(-1019.000000, -894.000000)">
        <g id="Headings" transform="translate(64.000000, 77.000000)">
            <g id="icon_category_tourism__m__white" transform="translate(955.000000, 817.000000)">
                <g id="ungroup">
                    <rect id="Rectangle-path" x="0" y="0" width="24" height="24"></rect>
                    <path d="M9,22 C9,22.552 9.448,23 10,23 L14,23 C14.552,23 15,22.552 15,22 L15,20 L9,20 L9,22 L9,22 Z" id="Shape" fill="#FFFFFF" opacity="0.3"></path>
                    <path d="M14.706,17.764 L14.706,17.264 C14.706,16.171 15.523,15.478 16.557,14.601 L16.825,14.372 C17.35,13.975 17.819,13.523 18.217,13.031 C19.238,11.853 19.805,10.49 19.951,8.87 C19.982,8.584 20,8.294 20,8 C20,3.589 16.411,0 12,0 C7.589,0 4,3.589 4,8 C4,8.294 4.018,8.584 4.048,8.86 C4.195,10.492 4.765,11.858 5.778,13.023 C6.178,13.517 6.648,13.971 7.152,14.352 L7.444,14.6 C8.478,15.477 9.295,16.17 9.295,17.263 L9.295,17.763 L14.706,17.763 L14.706,17.764 Z M8.09,13.838 L7.779,13.574 C7.316,13.223 6.904,12.826 6.544,12.381 C5.65,11.353 5.173,10.205 5.043,8.762 C5.016,8.512 5,8.257 5,8 C5,4.141 8.14,1 12,1 C15.86,1 19,4.141 19,8 C19,8.257 18.984,8.512 18.956,8.771 C18.827,10.206 18.35,11.353 17.456,12.381 L17.445,12.395 C17.096,12.827 16.684,13.224 16.197,13.593 L15.91,13.838 C14.904,14.692 13.947,15.504 13.745,16.764 L10.255,16.764 C10.053,15.504 9.096,14.691 8.09,13.838 L8.09,13.838 Z" id="Shape" fill="#FFFFFF"></path>
                    <path d="M12,0 C9.451,0 7.529,3.06 7.529,7.117 C7.529,9.759 8.257,11.273 8.961,12.737 C9.586,14.037 10.176,15.264 10.176,17.263 L11.176,17.263 C11.176,15.036 10.508,13.647 9.863,12.304 C9.177,10.878 8.529,9.53 8.529,7.117 C8.529,3.987 9.799,1.484 11.5,1.068 L11.5,17.264 L12.5,17.264 L12.5,1.068 C14.2,1.484 15.471,3.988 15.471,7.117 C15.471,9.53 14.824,10.878 14.138,12.305 C13.492,13.648 12.825,15.037 12.825,17.264 L13.825,17.264 C13.825,15.265 14.415,14.037 15.04,12.738 C15.744,11.274 16.472,9.759 16.472,7.118 C16.471,3.06 14.549,0 12,0 L12,0 Z" id="Shape" fill="#FFFFFF" opacity="0.3"></path>
                </g>
            </g>
        </g>
    </g>
</svg>
